22x22/actions/typewriter.svg

<svg xmlns="http://www.w3.org/2000/svg" viewBox="0 0 22 22"><path style="fill:currentColor;fill-opacity:1;stroke:none;color:#5d656b" d="M3 3v3h1V4h6v14H7v1h8v-1h-3V4h6v2h1V3H3z"/></svg>

<svg xmlns="http://www.w3.org/2000/svg" viewBox="0 0 22 22">
  <defs id="defs3051">
    <style type="text/css" id="current-color-scheme">
      .ColorScheme-Text {
        color:#5d656b;
      }
      </style>
  </defs>
 <path 
     style="fill:currentColor;fill-opacity:1;stroke:none" 
     d="M 3 3 L 3 4 L 3 6 L 4 6 L 4 4 L 10 4 L 10 18 L 8 18 L 7 18 L 7 19 L 15 19 L 15 18 L 14 18 L 12 18 L 12 4 L 18 4 L 18 6 L 19 6 L 19 4 L 19 3 L 3 3 z "
	 class="ColorScheme-Text"
     />
</svg>
